X: 35210
T: Rory Gallagher's
R: jig
M: 6/8
K: Amixolydian
|:c|eaa faa|eae fec|ecf ecA|cBA Bcd|
eaa faa|eae fec|ecf ecA|BAA A2:|
|:a|cAA cde|dAA ded|eAA eAe|dAA ded|
cAA cde|dAA ded|ecf ecA|BAA A2:|

